X: 1797
T: Ar Thóir An Donn
R: reel
M: 4/4
K: Eminor
GEED ~E2DE|GE~E2 GBdB|AF~F2 DEFA|B/c/d ed dBAF|
GEED ~E2DE|GE~E2 GBdB|AF~F2 DEFA|1 BdAF GEED:|2 BdAF GE~E2||
|:B/c/d ef g2fg|ed~d2 BAGB|AF~F2 DEFA|B/c/d ed dBAc|
B/c/d ef g2fg|ed~d2 BAGB|AF~F2 DEFA|1 BdAF GE~E2:|2 BdAF GEED||

